X:8910
T:La Doncella Guerrera
R:Romance
C:Tradicional
S:Música Tradicional Asturiana, (C) Tello & Tito. Asturies, 2001.
S:http://pagina.de/MusTradAst <telloytito@asturies.org>
A:Asturies
Z:DyC en Teberga
M:2/4
L:1/8
Q:1/4=120
K:F
|: A2 AA|A2 A^F|GG GA|cB AG|A4|G2 GG|G2 FE|FF AB|AG FE|D2 z2 :|


